icons/svg/single-number-reach_12.svg

<?xml version="1.0" encoding="UTF-8"?>
<svg width="12px" height="12px" viewBox="0 0 12 12" version="1.1" xmlns="http://www.w3.org/2000/svg" xmlns:xlink="http://www.w3.org/1999/xlink">
    <!-- Generator: Sketch 56.3 (81716) - https://sketch.com -->
    <title>phone/single-number-reach_12</title>
    <desc>Created with Sketch.</desc>
    <g id="Icons-Webex" stroke="none" stroke-width="1" fill="none" fill-rule="evenodd">
        <g id="phone/single-number-reach_12" fill="#000000">
            <g id="single-number-reach_12">
                <path d="M12,5.9998 C12,6.1998 11.881,6.3688 11.712,6.4488 L10.254,7.9068 C10.156,8.0048 10.028,8.0538 9.9,8.0538 C9.772,8.0538 9.645,8.0048 9.547,7.9068 C9.352,7.7118 9.352,7.3958 9.547,7.1998 L10.247,6.4998 L8.5,6.4998 C8.224,6.4998 8,6.2758 8,5.9998 C8,5.7238 8.224,5.4998 8.5,5.4998 L10.327,5.4998 L9.547,4.7198 C9.352,4.5248 9.352,4.2078 9.547,4.0128 C9.742,3.8178 10.059,3.8178 10.254,4.0128 L11.848,5.6058 C11.941,5.6998 11.994,5.8268 11.994,5.9598 C11.994,5.9618 11.993,5.9628 11.993,5.9648 C11.994,5.9778 12,5.9878 12,5.9998 Z M2.5,3.9998 C2.776,3.9998 3,4.2238 3,4.4998 C3,4.7758 2.776,4.9998 2.5,4.9998 L0.5,4.9998 C0.224,4.9998 0,4.7758 0,4.4998 C0,4.2238 0.224,3.9998 0.5,3.9998 L2.5,3.9998 Z M2.5,6.9998 C2.776,6.9998 3,7.2238 3,7.4998 C3,7.7758 2.776,7.9998 2.5,7.9998 L0.5,7.9998 C0.224,7.9998 0,7.7758 0,7.4998 C0,7.2238 0.224,6.9998 0.5,6.9998 L2.5,6.9998 Z M7.1094,10.2664 C7.2404,10.1334 7.2804,9.9354 7.2124,9.7614 L6.8804,8.9204 C6.8034,8.7274 6.6484,8.5794 6.4544,8.5134 L5.9564,8.3464 C5.5954,8.2244 5.3364,7.8994 5.2944,7.5174 C5.1794,6.4614 5.1764,5.3514 5.2854,4.4734 C5.3314,4.0974 5.5914,3.7764 5.9464,3.6574 L6.4534,3.4864 C6.6484,3.4204 6.8044,3.2714 6.8804,3.0784 L7.2134,2.2384 C7.2814,2.0644 7.2414,1.8664 7.1104,1.7344 L6.4464,1.0644 C6.3944,1.0114 6.3354,0.9994 6.2934,0.9994 C6.2834,0.9994 6.2744,1.0004 6.2664,1.0014 C6.2284,1.0064 6.1574,1.0254 6.1124,1.1024 C5.4114,2.2914 5.0094,4.0764 5.0094,5.9994 C5.0094,7.9224 5.4114,9.7074 6.1114,10.8964 C6.1574,10.9734 6.2284,10.9934 6.2664,10.9974 C6.3054,11.0024 6.3814,11.0004 6.4474,10.9354 L7.1094,10.2664 Z M7.8104,8.5534 L8.1414,9.3944 C8.3564,9.9374 8.2304,10.5554 7.8204,10.9694 L7.1574,11.6384 C6.9254,11.8724 6.6184,11.9994 6.2954,11.9994 C6.2444,11.9994 6.1934,11.9964 6.1414,11.9904 C5.7664,11.9434 5.4424,11.7294 5.2504,11.4044 C4.4504,10.0464 4.0094,8.1274 4.0094,5.9994 C4.0094,3.8714 4.4504,1.9524 5.2504,0.5954 C5.4424,0.2694 5.7664,0.0564 6.1414,0.0094 C6.5224,-0.0366 6.8894,0.0904 7.1574,0.3604 L7.8204,1.0304 C8.2294,1.4424 8.3564,2.0604 8.1434,2.6044 L7.8104,3.4464 C7.6254,3.9144 7.2474,4.2744 6.7724,4.4334 L6.2664,4.6044 C6.1794,5.3894 6.1834,6.4414 6.2884,7.4104 L6.7724,7.5664 C7.2474,7.7254 7.6254,8.0844 7.8104,8.5524 L7.8104,8.5534 Z" id="fill"></path>
            </g>
        </g>
    </g>
</svg>

<svg width="12" height="12" xmlns="http://www.w3.org/2000/svg"><path d="M12 6c0 .2-.119.369-.288.449l-1.458 1.458a.5.5 0 11-.707-.707l.7-.7H8.5a.5.5 0 010-1h1.827l-.78-.78a.5.5 0 01.707-.707l1.594 1.593a.504.504 0 01.146.354l-.001.005c.001.013.007.023.007.035zM2.5 4a.5.5 0 010 1h-2a.5.5 0 010-1h2zm0 3a.5.5 0 010 1h-2a.5.5 0 010-1h2zm4.61 3.266a.474.474 0 00.102-.505l-.332-.84a.703.703 0 00-.426-.408l-.498-.167a.989.989 0 01-.662-.829c-.115-1.056-.118-2.166-.009-3.044a.99.99 0 01.661-.816l.507-.17a.7.7 0 00.427-.409l.333-.84a.472.472 0 00-.103-.504l-.664-.67a.21.21 0 00-.18-.063.205.205 0 00-.154.101C5.412 2.292 5.01 4.076 5.01 6s.402 3.708 1.102 4.897a.205.205 0 00.155.101.216.216 0 00.181-.062l.662-.669zm.7-1.713l.331.841a1.47 1.47 0 01-.32 1.575l-.664.67a1.207 1.207 0 01-1.016.351 1.201 1.201 0 01-.89-.586C4.45 10.046 4.008 8.127 4.008 6S4.45 1.952 5.25.595A1.21 1.21 0 017.157.36l.663.67c.41.412.536 1.03.323 1.574l-.333.842a1.693 1.693 0 01-1.038.987l-.506.171c-.087.785-.083 1.837.022 2.806l.484.156c.475.16.853.518 1.038.986v.001z" fill="#000" fill-rule="evenodd"/></svg>
